X:75
T:In His Temple Now Behold Him
%%stretchlast false
M:6/8
L:1/4
K:F clef=C1
"^I"[F,CA]2 "^V¹"[E,G,Cc] | "^I"[F,A,CA]2 [F,A,CF]/ "^V¹"[E,G,CF]/ | "^IV¹"[D,F,DB]2 "^ii¹"[B,,G,DG] | "^V"[C,G,CE]2 [C,E,G,C]/ "^V7³"[B,,E,G,C]/ | "^I¹"[A,,A,CF]2 "^vii°¹"[G,,E,B,G] | "^I"[F,,F,A,A] [F,,F,CA]/ "^V"[C,E,CG]/ "^♭v°¹"[D,=B,F] | "^V"[C,E,CE]/ [C,F,CE]/ "^v"[G,,G,CD] "^II7"[G,,F,=B,D] | "^V"[C,E,C]3 | [C,G,CE]2 "^V/V¹"[=B,,G,DG] | "^V"[C,G,CE]2 [C,E,G,C]/ "^V7³"[B,,E,G,C]/ | "^I¹"[A,,C,A,F]3/2 [A,,F,A,F]/ "^vii°¹"[G,,E,B,G] | "^I"[F,,F,CA]2 [F,A,CF] | "^IV¹"[D,F,DB] [D,F,EB]/ [D,F,FB]/ "^iii7¹"[C,G,EA]/ "^iii¹"[C,A,EA]/ | "^ii¹"[B,,B,DG]/ [B,,B,CG]/ [B,,D,DG]/ "^IV7"[B,,D,DA]/ "^III+"[A,,_D,A,F] | "^ii7"[G,,D,B,F]/ "^viiø7¹"[G,,D,B,E]/ "^vi"[A,,D,A,E] "^V/vi"[A,,_D,A,E] | "^vi"[D,A,D]3 | "^VI"[D,A,D_G]2 "^vi7³"[C,A,DF] | "^II¹"[=B,,G,DG]2 "^V/V¹"[=B,,G,DG] | "^V"[C,G,CE]2 "^V7³"[B,,G,CE] | "^I¹"[A,,F,CF]2 [A,,F,CF] | "^IV"[B,,F,B,D]2 "^ii"[G,,G,B,D] | "^V"[C,G,CE] "^V7"[C,G,B,E] "^I"[F,A,F] | "^V"[C,E,G,F]/ [C,D,G,F]/ "^i"[C,G,F] "^V"[C,G,E]/ "^iii¹"[C,A,E]/4 "^V7"[C,B,E]/4 | "^I"[F,,C,A,F]3 |]
